svg/Outline/signature.svg

<svg viewBox="0 0 24 24" xmlns="http://www.w3.org/2000/svg" width="24" height="24"><path fill-rule="evenodd" d="M13.58 9.65a2.3 2.3 0 0 1 1.9.2q.84.46 1.19 1.28c.22.53.24 1.08.15 1.61a8 8 0 0 1-1.45 3.04c-.56.79-1.23 1.56-1.89 2.25q.14 0 .32-.04a6 6 0 0 0 3.55-1.97l.17-.2.2-.2q.11-.1.37-.23.31-.14.71-.02c.24.08.4.23.5.33.16.2.28.45.36.65q.08.2.15.28l.1-.1c.44-.44.87-1.31 1-1.83l.88.23.87.23c-.2.74-.75 1.92-1.47 2.64-.33.34-.91.78-1.65.68a1.8 1.8 0 0 1-1.23-.85 8 8 0 0 1-4.14 2.12q-1.19.26-2.14-.18l-.08-.04q-.57.52-.98.83a.9.9 0 0 1-1.11-1.41q.35-.28.87-.74l-.03-.05a6.5 6.5 0 0 1-.2-3.87 8.4 8.4 0 0 1 1.62-3.57 3.4 3.4 0 0 1 1.46-1.07m1.02 1.76q-.25-.14-.44-.06-.26.08-.66.53c-.53.63-1 1.67-1.24 2.79a6 6 0 0 0-.1 2.14c.62-.65 1.24-1.36 1.75-2.07a6 6 0 0 0 1.13-2.3q.07-.42-.03-.62a1 1 0 0 0-.41-.41" clip-rule="evenodd"/><path d="M20.92 14.7a.9.9 0 0 1 1.74.46zM8.75 12.23a.9.9 0 0 1 0 1.8H5a.9.9 0 0 1 0-1.8zm1.63-4a.9.9 0 0 1 0 1.8H5a.9.9 0 0 1 0-1.8zm5.85-4a.9.9 0 0 1 0 1.8H5.01a.9.9 0 0 1 0-1.8z"/></svg>

<svg viewBox="0 0 24 24" xmlns="http://www.w3.org/2000/svg" width="24" height="24"><path fill-rule="evenodd" d="M13.58 9.65A2.3 2.3 0 0 1 15.48 9.85Q16.32 10.31 16.67 11.13C16.89 11.66 16.91 12.21 16.82 12.74A8 8 0 0 1 15.37 15.78C14.81 16.57 14.14 17.34 13.48 18.03Q13.62 18.03 13.8 17.99A6 6 0 0 0 17.35 16.02L17.72 15.62Q17.83 15.52 18.09 15.39Q18.4 15.25 18.8 15.37C19.04 15.45 19.2 15.6 19.3 15.7C19.46 15.9 19.58 16.15 19.66 16.35Q19.74 16.55 19.81 16.63L19.91 16.53C20.35 16.09 20.78 15.22 20.91 14.7L22.66 15.16C22.46 15.9 21.91 17.08 21.19 17.8C20.86 18.14 20.28 18.58 19.54 18.48A1.8 1.8 0 0 1 18.31 17.63A8 8 0 0 1 14.17 19.75Q12.98 20.01 12.03 19.57L11.95 19.53Q11.38 20.05 10.97 20.36A.9 .9 0 0 1 9.86 18.95Q10.21 18.67 10.73 18.21L10.7 18.16A6.5 6.5 0 0 1 10.5 14.29A8.4 8.4 0 0 1 12.12 10.72A3.4 3.4 0 0 1 13.58 9.65M14.6 11.41q-.25-.14-.44-.06-.26.08-.66.53c-.53.63-1 1.67-1.24 2.79a6 6 0 0 0-.1 2.14c.62-.65 1.24-1.36 1.75-2.07a6 6 0 0 0 1.13-2.3q.07-.42-.03-.62a1 1 0 0 0-.41-.41" clip-rule="evenodd"/><path d="M20.92 14.7a.9.9 0 0 1 1.74.46zM8.75 12.23a.9.9 0 0 1 0 1.8H5a.9.9 0 0 1 0-1.8zm1.63-4a.9.9 0 0 1 0 1.8H5a.9.9 0 0 1 0-1.8zm5.85-4a.9.9 0 0 1 0 1.8H5.01a.9.9 0 0 1 0-1.8z"/></svg>
